X:271
T:The Swallow's Tail
R:reel
M:4/4
L:1/8
K:Ador
|:eAcA eAcA|cdef gedB|G2BG dGBG|cdef g2fg|
eA (3cBA eA (3cBA|cdef g2fg|afge dBGB|AcBG A2 gf:|
|:eaag abag|edef gedB|(3GFG BG dGBG|cdef g2fg|
eaag abag|edef g2fg|afge dBGB|AcBG A2 gf:|

